svgs/1F64F-1F3FF.svg

<svg xmlns="http://www.w3.org/2000/svg" xmlns:xlink="http://www.w3.org/1999/xlink" preserveAspectRatio="none" viewBox="0 0 72 72"><defs><path id="a" fill="#563E37" d="M66 5l-1.3 1.3q-.3.3-.7.3-.45 0-.75-.3L62 5v93l2-2 2 2V5z"/><path id="b" fill="#8E726A" d="M81.55 90.85q6.8-14.2 5.75-19.05-.75-3.55-4.35-17.35-2.05-8-2.75-16.65L77.25 4.9q-.3-1.4-1.1-2.3l-.35-.45q-1.7-2.2-4.5-2.1-2.8.1-4.4 2.4-.9 1.3-.9 3.25v39.6q2.85 42.3 2.8 47.45-.1 8.95 2.8 11.05 1.5 1 2.95.25 3.6-6.1 7-13.2z"/><path id="c" fill="#8E726A" d="M50.75 4.9l-3 32.9Q47.1 46.45 45 54.45q-3.6 13.8-4.35 17.35-1.05 4.85 5.75 19.05 3.4 7.1 7 13.2 1.5.75 2.95-.25 2.9-2.1 2.8-11.05-.05-3.2 1.4-25.65.75-11.2 1.45-21.8V5.7q0-1.85-.95-3.25Q59.5.15 56.7.05q-2.8-.1-4.55 2.1l-.35.45q-.8.95-1.05 2.3z"/><path id="d" fill="#8E726A" d="M103.3 92.8q-4.2-2.3-10.4-10.55l-5.35-7.85-14.2 31.55q2.25.15 8.95 9.95 3.35 4.9 6.25 9.75 5.4-7.3 9.9-15.05 9.05-15.55 4.85-17.8z"/><path id="e" fill="#8E726A" d="M77.25 27.6l-.65-11.55q-.8-2.6-3.25-3.7t-4.75.15q-.8.35-1.45 1.1Q66 14.9 66 16.55L66.1 67q.05 17.5-.1 25.25-.1 7.8 3.9 11.2 2 1.75 4 1.9l3.35-77.75z"/><path id="f" fill="#8E726A" d="M83.6 55.15l-1.3-2.9q-2.6-7.45-4-15.6-.984-5.577-1.05-8.65v-.2q-.06-2.96-1.8-4.7-1.55-1.55-3.9-1.45-2.3.05-3.85 1.7-1.75 1.8-1.7 4.7V94.5q-.1 6.8.8 9.2.45 1.2.9 1l6.2 1.25q4.8 0 8.55-2.95 3.75-3 4.85-7.65l.8-3.3q1.7-14.7-1.85-28.7-1.15-4.4-2.65-8.2z"/><path id="g" fill="#8E726A" d="M50.7 28q-.063 3.073-1 8.65-1.45 8.15-4.05 15.6l-1.3 2.9q-1.5 3.8-2.65 8.2-3.55 14-1.85 28.7l.8 3.3q1.1 4.65 4.85 7.65 3.75 2.95 8.55 2.95 2.05-.15 4.05-1.65 4-3 3.9-9.8V28.05q.05-2.9-1.7-4.7-1.6-1.65-3.9-1.7-2.35-.1-3.9 1.45-1.74 1.74-1.8 4.7v.2z"/><path id="h" fill="#8E726A" d="M35.05 82.25q-6.2 8.25-10.4 10.55-4.2 2.25 4.85 17.8 4.55 7.75 9.9 15.05 2.9-4.85 6.25-9.75 6.7-9.8 8.95-9.95L40.4 74.4l-5.35 7.85z"/><path id="i" fill="#00ACC1" d="M72 72V61.1l-12.15-10-14.6 15.65 4.6 5.25H72z"/><path id="j" fill="#8E726A" d="M51.35 16.05L50.7 27.6l10.8 75.5q.15.4.3-.75.25-2.3.15-10.1-.1-7.75-.05-25.25l.1-50.45q0-1.6-1.2-2.95-.65-.75-1.45-1.1-2.3-1.25-4.75-.15t-3.25 3.7z"/><path id="k" fill="#8E726A" d="M64 20l10.45-5.7q-2.6-3.75-6.45-2.1-4 1.75-4 7.8z"/><path id="l" fill="#563E37" d="M72.75 12.25q-.05-.05-1.2-.7-1.1-.35-1.5-.4-.3-.05-.85-.05l-.9.1q-.75.1-1.7.65l-1.5 1.05q-.35.3-.6.7l-.55.65q-.8 1.3-.85 1.45-.15.5-.5 1.4l-.35 1.2-.3 2.2q.1.85.75 1.4.65.55 1.45.45.85-.05 1.35-.7.55-.65.5-1.5V20l-.1-.55-.05-.75.05-.9q.1-.65.1-1.05.25-.75.3-1.15l.25-.55.7-1.1.45-.45q.85-.6 1.1-.7.15-.15.6-.25l.6-.1q.45-.1 1.3 0 1 .3 1.1.35l.5.2 1.05.8.5.5-.9-1.3-.35-.4-.45-.35z"/><path id="m" fill="#8E726A" d="M51.35 3.2l12.7 4.9q-.95-5.25-5.9-6.95-4.85-1.7-6.8 2.05z"/><path id="n" fill="#563E37" d="M65.3 5.95l-.65-1.2-.9-1.25q-1.1-1.1-1.25-1.2l-.7-.55L60.25.9 58.5.3q-.05 0-.85-.15-.3-.1-.9-.1-.55 0-.8.05l-.85.1-.75.2q-.1 0-.65.3-.5.25-.6.35-.75.55-.9.75l-.85 1.4.5-.55q.05-.05.65-.55.15-.15.9-.5l.55-.2 1.3-.15 1.35.25 1.35.5.6.4q.15.05.6.4l.55.45.9 1q.3.35.65 1.05l.45 1 .2.85q.1.25.1.7l.1.6v.2l.1.4q.25.8 1 1.15.75.35 1.55.1.8-.25 1.15-1 .4-.75.1-1.55l-.3-.9q-.3-.75-.4-.9z"/><path id="o" fill="#8E726A" d="M63.85 8.1L76.5 3.2q-1.9-3.75-6.75-2.05-5 1.7-5.9 6.95z"/><path id="p" fill="#563E37" d="M76.5 3.2l-.35-.65q-.05-.25-.5-.7-.15-.2-.85-.8L74.2.7l-.7-.3-.75-.2-.8-.1q-.3-.05-.85-.05L69.35.3l-1.7.6-1.6.85-.7.55q-.25.2-1.25 1.2l-.9 1.25-.65 1.2q-.1.15-.4.9l-.3.9-.1.45q-.05.85.45 1.5.55.65 1.35.7.8.1 1.5-.4.65-.5.75-1.35v-.2l.05-.6q0-.45.1-.7l.65-1.85q.25-.3.7-1.05l.9-1 1.1-.85.65-.4.65-.25q.3-.15.7-.25.6-.15.7-.15l1.3-.05q.15 0 .6.15l.6.15q.8.4.9.5.6.5.65.55l.45.55z"/><path id="q" fill="#8E726A" d="M53.4 14.5L64 20q0-6.2-4.1-7.85-4-1.65-6.5 2.35z"/><path id="r" fill="#563E37" d="M64.8 15.65q-.05-.25-.8-1.45l-.6-.7q-.25-.45-.6-.65-.55-.55-1.55-1.1-1.2-.5-1.75-.55-.3-.1-.9-.1h-.45l-.4.1q-.2 0-1.55.4-1.05.65-1.15.75l-.45.4-.85 1.1-.35.65.5-.55q.15-.25.6-.5l.4-.3.5-.25q.3-.2 1.1-.4 1-.1 1.3-.05h.3l.95.3q.5.2 1.1.7.6.5.85.95l.35.55.25.6q.1.4.3 1.15l.15 1.05L62 20.6q.15.8.85 1.3.65.45 1.5.35.85-.15 1.3-.85.5-.7.35-1.5l-.6-2.85q-.4-.9-.6-1.4z"/><path id="s" fill="#00ACC1" d="M0 61.1V72h22.7l4.45-5.25-14.7-15.65L0 61.1z"/><path id="t" fill="#8E726A" d="M52.7 34.9L64 39q0-6.75-4.7-8.05-4.6-1.25-6.6 3.95z"/><path id="u" fill="#563E37" d="M60.45 30.3l-1-.25L58.4 30l-.95.1-.9.25q-.2.05-.8.4-.35.15-.7.45l-.6.5-1.15 1.6q-.25.4-.35.85l-.3.75.45-.65q.15-.4.5-.75.7-.65.85-.8l.5-.4.55-.3q.2-.15.7-.25.3-.15.65-.15l.7-.05.75.05.65.2.65.35.55.4.5.5q.1.15.75 1.15l.4 1.2q.05.4.2 1.1v3.1q.15.8.85 1.3.65.45 1.45.35.8-.15 1.3-.85.5-.65.4-1.5l-.7-3.1q-.1-.35-.65-1.55-.2-.45-.95-1.55-.95-1.1-1.45-1.4l-.85-.55q-.6-.35-.95-.45z"/><path id="v" fill="#8E726A" d="M64 39l11.55-3.35q-.8-2.7-2.75-4-1.8-1.2-3.85-.75Q64 31.95 64 39z"/><path id="w" fill="#563E37" d="M72 30.55l-.9-.4-1-.2q-1.2-.1-2.1.2-.35.05-1.05.35l-.95.55q-.8.6-.8.65l-.75.75q-.75.95-1.05 1.6-.65 1.45-.7 1.6L62.3 37l-.35 2.45q.05.8.7 1.4.6.55 1.45.5.85-.05 1.4-.7.55-.65.5-1.45l-.05-2.75q0-.05.25-1.2l.45-1.2.4-.6q.1-.25.45-.55l.5-.5q.4-.3.6-.35.45-.25 1.45-.45h.75l.7.1.7.25 1.25.75.45.45q.25.25.75.95.3.3.5.8l.4.75-.2-.8q-.15-.55-.35-.9-.45-1-.55-1.15l-.45-.65-.55-.55q-.3-.4-.65-.6-.7-.4-.8-.45z"/><path id="x" fill="#8E726A" d="M53.7 106.3q2.2.1 4.05-.55 5.95-2.1 6.15-10.8L51.85 106.1l1.85.2z"/><path id="y" fill="#563E37" d="M65.9 95l.05-.4q-.05-.85-.65-1.4-.65-.6-1.45-.55-.85.05-1.4.65-.6.6-.55 1.45l.05 1.8q.1.45 0 1.1l-.45 2.7q-.05.15-.55 1.45-.5.9-.85 1.35l-1.1 1.1-1.35.9-1.45.55q-.65.2-1.4.3l-1.2.15-1.75-.05 1.75.4 1.25.1q.7.1 1.5 0 .1 0 1.7-.3 1.5-.5 1.8-.65.6-.3 1.7-1.1l1.4-1.45 1.85-3.3 1.1-4.8z"/><path id="z" fill="#8E726A" d="M70.25 105.8q2.95 1 5.9.3L64 95q.25 8.7 6.25 10.8z"/><path id="A" fill="#563E37" d="M65.95 96.6l.05-2.25q-.15-.8-.85-1.25-.7-.5-1.5-.35-.8.15-1.3.85-.45.65-.35 1.5l.35 1.9q.3 1.15.35 1.3l.45 1.55.8 1.65q.2.45 1.1 1.65.55.7 1.4 1.45 1.1.8 1.7 1.05.3.15 1.75.7 1.5.25 1.7.25.8.1 1.55 0l1.25-.1 1.75-.4-3-.1-1.35-.3-1.45-.6q-1.05-.55-1.35-.85-.45-.3-1.15-1.1l-.85-1.3q-.5-1.3-.55-1.45L66.1 99l-.15-2.4z"/></defs><use transform="scale(.56248)" xlink:href="#a"/><use transform="scale(.56248)" xlink:href="#b"/><use transform="scale(.56248)" xlink:href="#c"/><use transform="scale(.56248)" xlink:href="#d"/><use transform="scale(.56248)" xlink:href="#e"/><use transform="scale(.56248)" xlink:href="#f"/><use transform="scale(.56248)" xlink:href="#g"/><use transform="scale(.56248)" xlink:href="#h"/><use xlink:href="#i"/><use transform="scale(.56248)" xlink:href="#j"/><use transform="rotate(.078) scale(.56247)" xlink:href="#k"/><use transform="rotate(.078) scale(.56247)" xlink:href="#l"/><use transform="rotate(.078) scale(.56247)" xlink:href="#m"/><use transform="rotate(.078) scale(.56247)" xlink:href="#n"/><use transform="rotate(.078) scale(.56247)" xlink:href="#o"/><use transform="rotate(.078) scale(.56247)" xlink:href="#p"/><use transform="rotate(.078) scale(.56247)" xlink:href="#q"/><use transform="rotate(.078) scale(.56247)" xlink:href="#r"/><use xlink:href="#s"/><use transform="rotate(.078) scale(.56247)" xlink:href="#t"/><use transform="rotate(.078) scale(.56247)" xlink:href="#u"/><use transform="rotate(.078) scale(.56247)" xlink:href="#v"/><use transform="rotate(.078) scale(.56247)" xlink:href="#w"/><use transform="rotate(.078) scale(.56247)" xlink:href="#x"/><use transform="rotate(.078) scale(.56247)" xlink:href="#y"/><use transform="rotate(.078) scale(.56247)" xlink:href="#z"/><use transform="rotate(.078) scale(.56247)" xlink:href="#A"/></svg>

<svg xmlns="http://www.w3.org/2000/svg" version="1.1" xmlns:xlink="http://www.w3.org/1999/xlink" preserveAspectRatio="none" x="0px" y="0px" width="72px" height="72px" viewBox="0 0 72 72">
<defs>
<g id="Layer0_0_MEMBER_0_FILL">
<path fill="#563E37" stroke="none" d="
M 66 5
L 64.7 6.3
Q 64.4 6.6 64 6.6 63.55 6.6 63.25 6.3
L 62 5 62 98 64 96 66 98 66 5 Z"/>
</g>

<g id="Layer0_0_MEMBER_1_FILL">
<path fill="#8E726A" stroke="none" d="
M 81.55 90.85
Q 88.35 76.65 87.3 71.8 86.55 68.25 82.95 54.45 80.9 46.45 80.2 37.8
L 77.25 4.9
Q 76.95 3.5 76.15 2.6
L 75.8 2.15
Q 74.1 -0.05 71.3 0.05 68.5 0.15 66.9 2.45 66 3.75 66 5.7
L 66 45.3
Q 68.85 87.6 68.8 92.75 68.7 101.7 71.6 103.8 73.1 104.8 74.55 104.05 78.15 97.95 81.55 90.85 Z"/>
</g>

<g id="Layer0_0_MEMBER_2_FILL">
<path fill="#8E726A" stroke="none" d="
M 50.75 4.9
L 47.75 37.8
Q 47.1 46.45 45 54.45 41.4 68.25 40.65 71.8 39.6 76.65 46.4 90.85 49.8 97.95 53.4 104.05 54.9 104.8 56.35 103.8 59.25 101.7 59.15 92.75 59.1 89.55 60.55 67.1 61.3 55.9 62 45.3
L 62 5.7
Q 62 3.85 61.05 2.45 59.5 0.15 56.7 0.05 53.9 -0.05 52.15 2.15
L 51.8 2.6
Q 51 3.55 50.75 4.9 Z"/>
</g>

<g id="Layer0_0_MEMBER_3_FILL">
<path fill="#8E726A" stroke="none" d="
M 103.3 92.8
Q 99.1 90.5 92.9 82.25
L 87.55 74.4 73.35 105.95
Q 75.6 106.1 82.3 115.9 85.65 120.8 88.55 125.65 93.95 118.35 98.45 110.6 107.5 95.05 103.3 92.8 Z"/>
</g>

<g id="Layer0_0_MEMBER_4_FILL">
<path fill="#8E726A" stroke="none" d="
M 77.25 27.6
L 76.6 16.05
Q 75.8 13.45 73.35 12.35 70.9 11.25 68.6 12.5 67.8 12.85 67.15 13.6 66 14.9 66 16.55
L 66.1 67
Q 66.15 84.5 66 92.25 65.9 100.05 69.9 103.45 71.9 105.2 73.9 105.35
L 77.25 27.6 Z"/>
</g>

<g id="Layer0_0_MEMBER_5_FILL">
<path fill="#8E726A" stroke="none" d="
M 83.6 55.15
L 82.3 52.25
Q 79.7 44.8 78.3 36.65 77.3158203125 31.0732421875 77.25 28
L 77.25 27.8
Q 77.1908203125 24.8408203125 75.45 23.1 73.9 21.55 71.55 21.65 69.25 21.7 67.7 23.35 65.95 25.15 66 28.05
L 66 94.5
Q 65.9 101.3 66.8 103.7 67.25 104.9 67.7 104.7
L 73.9 105.95
Q 78.7 105.95 82.45 103 86.2 100 87.3 95.35
L 88.1 92.05
Q 89.8 77.35 86.25 63.35 85.1 58.95 83.6 55.15 Z"/>
</g>

<g id="Layer0_0_MEMBER_6_FILL">
<path fill="#8E726A" stroke="none" d="
M 50.7 27.8
L 50.7 28
Q 50.6373046875 31.0732421875 49.7 36.65 48.25 44.8 45.65 52.25
L 44.35 55.15
Q 42.85 58.95 41.7 63.35 38.15 77.35 39.85 92.05
L 40.65 95.35
Q 41.75 100 45.5 103 49.25 105.95 54.05 105.95 56.1 105.8 58.1 104.3 62.1 101.3 62 94.5
L 62 28.05
Q 62.05 25.15 60.3 23.35 58.7 21.7 56.4 21.65 54.05 21.55 52.5 23.1 50.7591796875 24.8408203125 50.7 27.8 Z"/>
</g>

<g id="Layer0_0_MEMBER_7_FILL">
<path fill="#8E726A" stroke="none" d="
M 35.05 82.25
Q 28.85 90.5 24.65 92.8 20.45 95.05 29.5 110.6 34.05 118.35 39.4 125.65 42.3 120.8 45.65 115.9 52.35 106.1 54.6 105.95
L 40.4 74.4 35.05 82.25 Z"/>
</g>

<g id="Layer0_0_MEMBER_8_FILL">
<path fill="#4285F4" stroke="none" d="
M 128 128
L 128 108.6 106.4 90.85 80.45 118.7 88.65 128 128 128 Z"/>
</g>

<g id="Layer0_0_MEMBER_9_FILL">
<path fill="#8E726A" stroke="none" d="
M 51.35 16.05
L 50.7 27.6 61.5 103.1
Q 61.65 103.5 61.8 102.35 62.05 100.05 61.95 92.25 61.85 84.5 61.9 67
L 62 16.55
Q 62 14.95 60.8 13.6 60.15 12.85 59.35 12.5 57.05 11.25 54.6 12.35 52.15 13.45 51.35 16.05 Z"/>
</g>

<g id="Layer0_0_MEMBER_10_MEMBER_0_FILL">
<path fill="#8E726A" stroke="none" d="
M 64 20
L 74.45 14.3
Q 71.85 10.55 68 12.2 64 13.95 64 20 Z"/>
</g>

<g id="Layer0_0_MEMBER_10_MEMBER_1_FILL">
<path fill="#563E37" stroke="none" d="
M 72.75 12.25
Q 72.7 12.2 71.55 11.55 70.45 11.2 70.05 11.15 69.75 11.1 69.2 11.1
L 68.3 11.2
Q 67.55 11.3 66.6 11.85
L 65.1 12.9
Q 64.75 13.2 64.5 13.6
L 63.95 14.25
Q 63.15 15.55 63.1 15.7 62.95 16.2 62.6 17.1
L 62.25 18.3 61.95 20.5
Q 62.05 21.35 62.7 21.9 63.35 22.45 64.15 22.35 65 22.3 65.5 21.65 66.05 21 66 20.15
L 66 20 65.9 19.45 65.85 18.7 65.9 17.8
Q 66 17.15 66 16.75 66.25 16 66.3 15.6
L 66.55 15.05 67.25 13.95 67.7 13.5
Q 68.55 12.9 68.8 12.8 68.95 12.65 69.4 12.55
L 70 12.45
Q 70.45 12.35 71.3 12.45 72.3 12.75 72.4 12.8
L 72.9 13 73.95 13.8 74.45 14.3 73.55 13 73.2 12.6 72.75 12.25 Z"/>
</g>

<g id="Layer0_0_MEMBER_11_MEMBER_0_FILL">
<path fill="#8E726A" stroke="none" d="
M 51.35 3.2
L 64.05 8.1
Q 63.1 2.85 58.15 1.15 53.3 -0.55 51.35 3.2 Z"/>
</g>

<g id="Layer0_0_MEMBER_11_MEMBER_1_FILL">
<path fill="#563E37" stroke="none" d="
M 65.3 5.95
L 64.65 4.75 63.75 3.5
Q 62.65 2.4 62.5 2.3
L 61.8 1.75 60.25 0.9 58.5 0.3
Q 58.45 0.3 57.65 0.15 57.35 0.05 56.75 0.05 56.2 0.05 55.95 0.1
L 55.1 0.2 54.35 0.4
Q 54.25 0.4 53.7 0.7 53.2 0.95 53.1 1.05 52.35 1.6 52.2 1.8
L 51.35 3.2 51.85 2.65
Q 51.9 2.6 52.5 2.1 52.65 1.95 53.4 1.6
L 53.95 1.4 55.25 1.25 56.6 1.5 57.95 2 58.55 2.4
Q 58.7 2.45 59.15 2.8
L 59.7 3.25 60.6 4.25
Q 60.9 4.6 61.25 5.3
L 61.7 6.3 61.9 7.15
Q 62 7.4 62 7.85
L 62.1 8.45 62.1 8.65 62.2 9.05
Q 62.45 9.85 63.2 10.2 63.95 10.55 64.75 10.3 65.55 10.05 65.9 9.3 66.3 8.55 66 7.75
L 65.7 6.85
Q 65.4 6.1 65.3 5.95 Z"/>
</g>

<g id="Layer0_0_MEMBER_12_MEMBER_0_FILL">
<path fill="#8E726A" stroke="none" d="
M 63.85 8.1
L 76.5 3.2
Q 74.6 -0.55 69.75 1.15 64.75 2.85 63.85 8.1 Z"/>
</g>

<g id="Layer0_0_MEMBER_12_MEMBER_1_FILL">
<path fill="#563E37" stroke="none" d="
M 76.5 3.2
L 76.15 2.55
Q 76.1 2.3 75.65 1.85 75.5 1.65 74.8 1.05
L 74.2 0.7 73.5 0.4 72.75 0.2 71.95 0.1
Q 71.65 0.05 71.1 0.05
L 69.35 0.3 67.65 0.9 66.05 1.75 65.35 2.3
Q 65.1 2.5 64.1 3.5
L 63.2 4.75 62.55 5.95
Q 62.45 6.1 62.15 6.85
L 61.85 7.75 61.75 8.2
Q 61.7 9.05 62.2 9.7 62.75 10.35 63.55 10.4 64.35 10.5 65.05 10 65.7 9.5 65.8 8.65
L 65.8 8.45 65.85 7.85
Q 65.85 7.4 65.95 7.15
L 66.6 5.3
Q 66.85 5 67.3 4.25
L 68.2 3.25 69.3 2.4 69.95 2 70.6 1.75
Q 70.9 1.6 71.3 1.5 71.9 1.35 72 1.35
L 73.3 1.3
Q 73.45 1.3 73.9 1.45
L 74.5 1.6
Q 75.3 2 75.4 2.1 76 2.6 76.05 2.65
L 76.5 3.2 Z"/>
</g>

<g id="Layer0_0_MEMBER_13_MEMBER_0_FILL">
<path fill="#8E726A" stroke="none" d="
M 53.4 14.5
L 64 20
Q 64 13.8 59.9 12.15 55.9 10.5 53.4 14.5 Z"/>
</g>

<g id="Layer0_0_MEMBER_13_MEMBER_1_FILL">
<path fill="#563E37" stroke="none" d="
M 64 14.2
L 63.4 13.5
Q 63.15 13.05 62.8 12.85 62.25 12.3 61.25 11.75 60.05 11.25 59.5 11.2 59.2 11.1 58.6 11.1
L 58.15 11.1 57.75 11.2
Q 57.55 11.2 56.2 11.6 55.15 12.25 55.05 12.35
L 54.6 12.75 53.75 13.85 53.4 14.5 53.9 13.95
Q 54.05 13.7 54.5 13.45
L 54.9 13.15 55.4 12.9
Q 55.7 12.7 56.5 12.5 57.5 12.4 57.8 12.45
L 58.1 12.45 59.05 12.75
Q 59.55 12.95 60.15 13.45 60.75 13.95 61 14.4
L 61.35 14.95 61.6 15.55
Q 61.7 15.95 61.9 16.7
L 62.05 17.75 62 20.6
Q 62.15 21.4 62.85 21.9 63.5 22.35 64.35 22.25 65.2 22.1 65.65 21.4 66.15 20.7 66 19.9
L 65.4 17.05
Q 65 16.15 64.8 15.65 64.75 15.4 64 14.2 Z"/>
</g>

<g id="Layer0_0_MEMBER_14_FILL">
<path fill="#4285F4" stroke="none" d="
M 0 108.65
L 0 128 40.4 128 48.3 118.7 22.1 90.85 0 108.65 Z"/>
</g>

<g id="Layer0_0_MEMBER_15_MEMBER_0_FILL">
<path fill="#8E726A" stroke="none" d="
M 52.7 34.9
L 64 39
Q 64 32.25 59.3 30.95 54.7 29.7 52.7 34.9 Z"/>
</g>

<g id="Layer0_0_MEMBER_15_MEMBER_1_FILL">
<path fill="#563E37" stroke="none" d="
M 60.45 30.3
L 59.45 30.05 58.4 30 57.45 30.1 56.55 30.35
Q 56.35 30.4 55.75 30.75 55.4 30.9 55.05 31.2
L 54.45 31.7 53.3 33.3
Q 53.05 33.7 52.95 34.15
L 52.65 34.9 53.1 34.25
Q 53.25 33.85 53.6 33.5 54.3 32.85 54.45 32.7
L 54.95 32.3 55.5 32
Q 55.7 31.85 56.2 31.75 56.5 31.6 56.85 31.6
L 57.55 31.55 58.3 31.6 58.95 31.8 59.6 32.15 60.15 32.55 60.65 33.05
Q 60.75 33.2 61.4 34.2
L 61.8 35.4
Q 61.85 35.8 62 36.5
L 62 39.6
Q 62.15 40.4 62.85 40.9 63.5 41.35 64.3 41.25 65.1 41.1 65.6 40.4 66.1 39.75 66 38.9
L 65.3 35.8
Q 65.2 35.45 64.65 34.25 64.45 33.8 63.7 32.7 62.75 31.6 62.25 31.3
L 61.4 30.75
Q 60.8 30.4 60.45 30.3 Z"/>
</g>

<g id="Layer0_0_MEMBER_16_MEMBER_0_FILL">
<path fill="#8E726A" stroke="none" d="
M 64 39
L 75.55 35.65
Q 74.75 32.95 72.8 31.65 71 30.45 68.95 30.9 64 31.95 64 39 Z"/>
</g>

<g id="Layer0_0_MEMBER_16_MEMBER_1_FILL">
<path fill="#563E37" stroke="none" d="
M 72 30.55
L 71.1 30.15 70.1 29.95
Q 68.9 29.85 68 30.15 67.65 30.2 66.95 30.5
L 66 31.05
Q 65.2 31.65 65.2 31.7
L 64.45 32.45
Q 63.7 33.4 63.4 34.05 62.75 35.5 62.7 35.65
L 62.3 37 61.95 39.45
Q 62 40.25 62.65 40.85 63.25 41.4 64.1 41.35 64.95 41.3 65.5 40.65 66.05 40 66 39.2
L 65.95 36.45
Q 65.95 36.4 66.2 35.25
L 66.65 34.05 67.05 33.45
Q 67.15 33.2 67.5 32.9
L 68 32.4
Q 68.4 32.1 68.6 32.05 69.05 31.8 70.05 31.6
L 70.8 31.6 71.5 31.7 72.2 31.95 73.45 32.7 73.9 33.15
Q 74.15 33.4 74.65 34.1 74.95 34.4 75.15 34.9
L 75.55 35.65 75.35 34.85
Q 75.2 34.3 75 33.95 74.55 32.95 74.45 32.8
L 74 32.15 73.45 31.6
Q 73.15 31.2 72.8 31 72.1 30.6 72 30.55 Z"/>
</g>

<g id="Layer0_0_MEMBER_17_MEMBER_0_FILL">
<path fill="#8E726A" stroke="none" d="
M 53.7 106.3
Q 55.9 106.4 57.75 105.75 63.7 103.65 63.9 94.95
L 51.85 106.1 53.7 106.3 Z"/>
</g>

<g id="Layer0_0_MEMBER_17_MEMBER_1_FILL">
<path fill="#563E37" stroke="none" d="
M 61.9 94.75
L 61.95 96.55
Q 62.05 97 61.95 97.65
L 61.5 100.35
Q 61.45 100.5 60.95 101.8 60.45 102.7 60.1 103.15
L 59 104.25 57.65 105.15 56.2 105.7
Q 55.55 105.9 54.8 106
L 53.6 106.15 51.85 106.1 53.6 106.5 54.85 106.6
Q 55.55 106.7 56.35 106.6 56.45 106.6 58.05 106.3 59.55 105.8 59.85 105.65 60.45 105.35 61.55 104.55
L 62.95 103.1 64.8 99.8 65.9 95 65.95 94.6
Q 65.9 93.75 65.3 93.2 64.65 92.6 63.85 92.65 63 92.7 62.45 93.3 61.85 93.9 61.9 94.75 Z"/>
</g>

<g id="Layer0_0_MEMBER_18_MEMBER_0_FILL">
<path fill="#8E726A" stroke="none" d="
M 70.25 105.8
Q 73.2 106.8 76.15 106.1
L 64 95
Q 64.25 103.7 70.25 105.8 Z"/>
</g>

<g id="Layer0_0_MEMBER_18_MEMBER_1_FILL">
<path fill="#563E37" stroke="none" d="
M 62 95.1
L 62.35 97
Q 62.65 98.15 62.7 98.3
L 63.15 99.85 63.95 101.5
Q 64.15 101.95 65.05 103.15 65.6 103.85 66.45 104.6 67.55 105.4 68.15 105.65 68.45 105.8 69.9 106.35 71.4 106.6 71.6 106.6 72.4 106.7 73.15 106.6
L 74.4 106.5 76.15 106.1 73.15 106 71.8 105.7 70.35 105.1
Q 69.3 104.55 69 104.25 68.55 103.95 67.85 103.15
L 67 101.85
Q 66.5 100.55 66.45 100.4
L 66.1 99 65.95 96.6 66 94.35
Q 65.85 93.55 65.15 93.1 64.45 92.6 63.65 92.75 62.85 92.9 62.35 93.6 61.9 94.25 62 95.1 Z"/>
</g>
</defs>

<g id="Layer_1">
<g transform="matrix( 0.5625, 0, 0, 0.5625, 0,0) ">
<use xlink:href="#Layer0_0_MEMBER_0_FILL"/>
</g>

<g transform="matrix( 0.5625, 0, 0, 0.5625, 0,0) ">
<use xlink:href="#Layer0_0_MEMBER_1_FILL"/>
</g>

<g transform="matrix( 0.5625, 0, 0, 0.5625, 0,0) ">
<use xlink:href="#Layer0_0_MEMBER_2_FILL"/>
</g>

<g transform="matrix( 0.5625, 0, 0, 0.5625, 0,0) ">
<use xlink:href="#Layer0_0_MEMBER_3_FILL"/>
</g>

<g transform="matrix( 0.5625, 0, 0, 0.5625, 0,0) ">
<use xlink:href="#Layer0_0_MEMBER_4_FILL"/>
</g>

<g transform="matrix( 0.5625, 0, 0, 0.5625, 0,0) ">
<use xlink:href="#Layer0_0_MEMBER_5_FILL"/>
</g>

<g transform="matrix( 0.5625, 0, 0, 0.5625, 0,0) ">
<use xlink:href="#Layer0_0_MEMBER_6_FILL"/>
</g>

<g transform="matrix( 0.5625, 0, 0, 0.5625, 0,0) ">
<use xlink:href="#Layer0_0_MEMBER_7_FILL"/>
</g>

<g transform="matrix( 0.5625, 0, 0, 0.5625, 0,0) ">
<use xlink:href="#Layer0_0_MEMBER_8_FILL"/>
</g>

<g transform="matrix( 0.5625, 0, 0, 0.5625, 0,0) ">
<use xlink:href="#Layer0_0_MEMBER_9_FILL"/>
</g>

<g transform="matrix( 0.5625, 0, 0, 0.5625, 0,0) ">
<use xlink:href="#Layer0_0_MEMBER_10_MEMBER_0_FILL"/>
</g>

<g transform="matrix( 0.5625, 0, 0, 0.5625, 0,0) ">
<use xlink:href="#Layer0_0_MEMBER_10_MEMBER_1_FILL"/>
</g>

<g transform="matrix( 0.5625, 0, 0, 0.5625, 0,0) ">
<use xlink:href="#Layer0_0_MEMBER_11_MEMBER_0_FILL"/>
</g>

<g transform="matrix( 0.5625, 0, 0, 0.5625, 0,0) ">
<use xlink:href="#Layer0_0_MEMBER_11_MEMBER_1_FILL"/>
</g>

<g transform="matrix( 0.5625, 0, 0, 0.5625, 0,0) ">
<use xlink:href="#Layer0_0_MEMBER_12_MEMBER_0_FILL"/>
</g>

<g transform="matrix( 0.5625, 0, 0, 0.5625, 0,0) ">
<use xlink:href="#Layer0_0_MEMBER_12_MEMBER_1_FILL"/>
</g>

<g transform="matrix( 0.5625, 0, 0, 0.5625, 0,0) ">
<use xlink:href="#Layer0_0_MEMBER_13_MEMBER_0_FILL"/>
</g>

<g transform="matrix( 0.5625, 0, 0, 0.5625, 0,0) ">
<use xlink:href="#Layer0_0_MEMBER_13_MEMBER_1_FILL"/>
</g>

<g transform="matrix( 0.5625, 0, 0, 0.5625, 0,0) ">
<use xlink:href="#Layer0_0_MEMBER_14_FILL"/>
</g>

<g transform="matrix( 0.5625, 0, 0, 0.5625, 0,0) ">
<use xlink:href="#Layer0_0_MEMBER_15_MEMBER_0_FILL"/>
</g>

<g transform="matrix( 0.5625, 0, 0, 0.5625, 0,0) ">
<use xlink:href="#Layer0_0_MEMBER_15_MEMBER_1_FILL"/>
</g>

<g transform="matrix( 0.5625, 0, 0, 0.5625, 0,0) ">
<use xlink:href="#Layer0_0_MEMBER_16_MEMBER_0_FILL"/>
</g>

<g transform="matrix( 0.5625, 0, 0, 0.5625, 0,0) ">
<use xlink:href="#Layer0_0_MEMBER_16_MEMBER_1_FILL"/>
</g>

<g transform="matrix( 0.5625, 0, 0, 0.5625, 0,0) ">
<use xlink:href="#Layer0_0_MEMBER_17_MEMBER_0_FILL"/>
</g>

<g transform="matrix( 0.5625, 0, 0, 0.5625, 0,0) ">
<use xlink:href="#Layer0_0_MEMBER_17_MEMBER_1_FILL"/>
</g>

<g transform="matrix( 0.5625, 0, 0, 0.5625, 0,0) ">
<use xlink:href="#Layer0_0_MEMBER_18_MEMBER_0_FILL"/>
</g>

<g transform="matrix( 0.5625, 0, 0, 0.5625, 0,0) ">
<use xlink:href="#Layer0_0_MEMBER_18_MEMBER_1_FILL"/>
</g>
</g>
</svg>
